X: 27212
T: Miss Ramsey
R: reel
M: 4/4
K: Dmajor
D3B AF F2|A3B AGFE|DADB ADFA|BdAF EGFE|
D3B AD F2|A3B AGFE|DADB ADFA|B2 AF DAgA||
FAdA eABe|dcdA Bcdg|fAdf (3efe df|eBAG FADA|
(3FGA df eAce|dcdA Bcde|(3fgd ec dAFA|B2 AF egfe||

